!!!COM: Charles Ives
!!!OTL: [T251_Ive-w17p6m1-10]
**kern	**kern	**dynam	**kern	**kern	**dynam
*grp:A	*grp:A	*	*grp:B	*grp:B	*
*part3	*part3	*part3	*part2	*part1	*part1
*staff4	*staff3	*	*staff2	*staff1	*
*I"Piano	*	*	*I"Violoncello	*I"Violin	*
*I'Pno.	*	*	*I'Vc.	*I'Vln.	*
*clefF4	*clefG2	*	*clefF4	*clefG2	*
*k[]	*k[]	*	*k[]	*k[]	*
*C:	*C:	*	*C:	*C:	*
*M6/8	*M6/8	*	*M6/8	*M6/8	*
=1	=1	=1	=1	=1	=1
!	!LO:TX:a:B:t=Presto	!	!	!LO:TX:a:B:t=Presto	!
4%3r	4%3r	.	8ryy	8ryy	4ryy
.	.	.	8ryy	8ryy	.
.	.	.	8ryy	8ryy	.
.	.	.	8ryy	8ryy	.
.	.	.	8ryy	8ryy	.
.	.	.	8ryy	8ryy	.
=2	=2	=2	=2	=2	=2
4%3r	4%3r	.	8ryy	8ryy	.
.	.	.	8ryy	8ryy	.
.	.	.	8ryy	8ryy	.
.	.	.	8ryy	8ryy	.
.	.	.	8ryy	8ryy	.
.	.	.	8ryy	8ryy	.
=3	=3	=3	=3	=3	=3
8FF#X 8D	8a#X 8bb	4ryy	8ryy	8ryy	.
8r	8r	.	8ryy	8ryy	.
8r	8r	.	8ryy	8ryy	.
4.r	4.r	.	8ryy	8ryy	.
.	.	.	8ryy	8ryy	.
.	.	.	8ryy	8ryy	.
=4	=4	=4	=4	=4	=4
8r	8r	.	8ryy	8ryy	.
8r	8r	.	8ryy	8ryy	.
8GG#X 8A	8a#X 8dd#X	.	8ryy	8ryy	.
4.r	4.r	.	8ryy	8ryy	.
.	.	.	8ryy	8ryy	.
.	.	.	8ryy	8ryy	.
!!LO:REH:t=5
=5	=5	=5	=5	=5	=5
8GG#XL 8F#X	8c#XL 8b	.	8ryy	8ryy	.
8AAJ 8G	8cnJ 8b-X	.	8ryy	8ryy	.
8r	8r	.	8ryy	8ryy	.
8r	8r	.	8ryy	8ryy	.
8AAL 8A	8d-XL 8bn	.	8ryy	8ryy	.
8AAJ 8G	8cJ 8cc	.	8ryy	8ryy	.
!!linebreak:original
=6	=6	=6	=6	=6	=6
4r.	8r	.	8ryy	8ryy	.
.	8e-X 8dd	.	8ryy	8ryy	.
.	8r	.	8ryy	8ryy	.
8EE-XL 8D	8r	.	4.ryy	4.ryy	.
8C 8B	8r	.	.	.	.
8GG^J 8E-X	8B-X 8d 8g	.	.	.	.
=7	=7	=7	=7	=7	=7
8AA-XL 8Fn	8AL 8d 8f#X	.	4.ryy	4.ryy	.
8GG^ 8E-X	8B-X^ 8d 8g	.	.	.	.
8AA-J 8F	8AJ 8d 8f#	.	.	.	.
8GGL 8E-	8B-L 8d 8g	.	8ryy	8ryy	.
8AA-^J 8F	8A^J 8d 8f#	.	8ryy	8ryy	.
8r	8r	.	8ryy	8ryy	.
=8	=8	=8	=8	=8	=8
8AA-XL 8Fn	8AL 8d 8f#X	.	4.ryy	4.ryy	.
8GG^ 8E-X	8B-X^ 8d 8g	.	.	.	.
8AA-J 8F	8AJ 8d 8f#	.	.	.	.
8r	8r	.	8ryy	8ryy	.
8GGL 8E-	8B-L 8d 8g	.	8ryy	8ryy	.
8AA-^J 8F	8A^J 8d 8f#	.	8ryy	8ryy	.
=9	=9	=9	=9	=9	=9
8GG 8E-X	8B-X 8d 8g	.	8ryy	8ryy	.
8r^	8r	.	8ryy	8ryy	.
8AA-X 8Fn	8A 8d 8f#X	.	8ryy	8ryy	.
8r	8r	.	8ryy	8ryy	.
8AA-L 8F	8AL 8d 8f#	.	8ryy	8ryy	.
8AA-J 8E-	8B-J 8d 8g	.	8ryy	8ryy	.
!!LO:REH:t=10
=10	=10	=10	=10	=10	=10
8AA-X 8Fn	8A 8d 8f#X	.	8ryy	8ryy	.
8r	8r	.	8ryy	8ryy	.
8r	8r	.	8ryy	8ryy	.
8GG 8E-X	8B-X 8d 8g	.	8ryy	8ryy	.
8r	8r	.	8ryy	8ryy	.
8AA- 8F	8A 8d 8f#	.	8ryy	8ryy	.
=	=	=	=	=	=
*-	*-	*-	*-	*-	*-
!!!system-decoration: s1,s2[({(s3,s4)})]
!!!EED:Jason Lee
!!!EEV:2021/10/26
